assets/icon.svg

<svg xmlns="http://www.w3.org/2000/svg" viewBox="0 0 1024 1024">
  <rect x="-16" y="0" width="1083" height="1047" fill="#1C2445"/>
  <path fill="#0FDD42" d="M495.562,140.165L687.959,140.165C694.891,140.165 701.328,143.754 704.972,149.65C708.616,155.546 708.948,162.909 705.848,169.109L592.055,396.694L687.959,396.694C694.995,396.694 701.513,400.391 705.124,406.429C708.735,412.467 708.908,419.958 705.579,426.156L464.566,874.953C459.961,883.527 449.853,887.542 440.621,884.465C431.388,881.387 425.711,872.11 427.172,862.488L472.296,565.346L335.231,565.346C328.545,565.346 322.302,562.006 318.592,556.443C314.883,550.881 314.198,543.833 316.767,537.661L477.098,152.479C480.202,145.022 487.485,140.165 495.562,140.165Z"/>
</svg>

<svg version="1.2" xmlns="http://www.w3.org/2000/svg" viewBox="0 0 1024 1024" width="1024" height="1024">
	<style>
		.s0 { fill: #ffffff }
	</style>
	<path class="s0" d="m495.56 140.16h192.4c6.93 0 13.37 3.59 17.01 9.49 3.65 5.9 3.98 13.26 0.88 19.46l-113.8 227.58h95.91c7.03 0 13.55 3.7 17.16 9.74 3.62 6.04 3.79 13.53 0.46 19.73l-241.01 448.79c-4.61 8.58-14.72 12.59-23.95 9.52-9.23-3.08-14.91-12.36-13.45-21.98l45.13-297.14h-137.07c-6.69 0-12.93-3.34-16.64-8.91-3.71-5.56-4.39-12.61-1.82-18.78l160.33-385.18c3.1-7.46 10.38-12.32 18.46-12.32z"/>
</svg>
